X:1
T:Captain McDuff
T:Captain McDuff
T:Donald Dow
C:Donald Dow
L:1/8
Q:1/8=232
M:4/4
K:A
V:1 treble 
V:1
|: a | ec Bc A2 EF | Ac ec B/B/B Ba | ec Bc A2 EF | Af ec A/A/A Aa | ec Bc A2 EF | Ac ec B/B/B Ba | %7
 ec Bc A2 EF | Af ec A/A/A Ad | ce ef ec ae | ce ef ec Bd | ce ef ec ec | ec Bc A/A/A Ad | %13
 ce ef ec ae | ce ef ec Bd | ce ea af ec | ec Bc A/A/A A :| %17

